X: 40959
T: Trip To Cullenstown, The
R: reel
M: 4/4
K: Amajor
AB|ceef ecAB|c2 cA BAFA|ceef ecAB|cBBA B2 AB|
cB (3cde faec|efec BAFA|c2 cA BAFA|EAAG A2||
AB|ceec dffe|ceec (3BcB AB|ceec dffg|afec (3BcB AB|
cB (3cde faec|efec BAFA|c2 cA BAFA|EAAG A2||

